school/img/country/IR.svg

<svg width="13" height="12" viewBox="0 0 13 12" fill="none" xmlns="http://www.w3.org/2000/svg">
<rect x="0.25" y="0.25" width="12.5" height="11.5" rx="1.75" fill="white" stroke="#F5F5F5" stroke-width="0.5"/>
<mask id="mask0" mask-type="alpha" maskUnits="userSpaceOnUse" x="0" y="0" width="13" height="12">
<rect x="0.25" y="0.25" width="12.5" height="11.5" rx="1.75" fill="white" stroke="white" stroke-width="0.5"/>
</mask>
<g mask="url(#mask0)">
<path fill-rule="evenodd" clip-rule="evenodd" d="M0 4H13V0H0V4Z" fill="#38BB56"/>
<path fill-rule="evenodd" clip-rule="evenodd" d="M0 12H13V8H0V12Z" fill="#DE1B27"/>
<path fill-rule="evenodd" clip-rule="evenodd" d="M0.928542 3.20001C0.757597 3.20001 0.619019 3.33859 0.619019 3.50954V3.69049C0.619019 3.86143 0.757597 4.00001 0.928542 4.00001C1.09949 4.00001 1.23807 3.86143 1.23807 3.69049V3.50954C1.23807 3.33859 1.09949 3.20001 0.928542 3.20001ZM2.16666 3.20001C1.99571 3.20001 1.85714 3.33859 1.85714 3.50954V3.69049C1.85714 3.86143 1.99571 4.00001 2.16666 4.00001C2.3376 4.00001 2.47618 3.86143 2.47618 3.69049V3.50954C2.47618 3.33859 2.3376 3.20001 2.16666 3.20001ZM3.09519 3.50954C3.09519 3.33859 3.23377 3.20001 3.40471 3.20001C3.57566 3.20001 3.71424 3.33859 3.71424 3.50954V3.69049C3.71424 3.86143 3.57566 4.00001 3.40471 4.00001C3.23377 4.00001 3.09519 3.86143 3.09519 3.69049V3.50954ZM4.64283 3.20001C4.47188 3.20001 4.3333 3.33859 4.3333 3.50954V3.69049C4.3333 3.86143 4.47188 4.00001 4.64283 4.00001C4.81377 4.00001 4.95235 3.86143 4.95235 3.69049V3.50954C4.95235 3.33859 4.81377 3.20001 4.64283 3.20001ZM5.57142 3.50954C5.57142 3.33859 5.71 3.20001 5.88095 3.20001C6.05189 3.20001 6.19047 3.33859 6.19047 3.50954V3.69049C6.19047 3.86143 6.05189 4.00001 5.88095 4.00001C5.71 4.00001 5.57142 3.86143 5.57142 3.69049V3.50954ZM7.119 3.20001C6.94805 3.20001 6.80947 3.33859 6.80947 3.50954V3.69049C6.80947 3.86143 6.94805 4.00001 7.119 4.00001C7.28994 4.00001 7.42852 3.86143 7.42852 3.69049V3.50954C7.42852 3.33859 7.28994 3.20001 7.119 3.20001ZM8.04759 3.50954C8.04759 3.33859 8.18617 3.20001 8.35711 3.20001C8.52806 3.20001 8.66664 3.33859 8.66664 3.50954V3.69049C8.66664 3.86143 8.52806 4.00001 8.35711 4.00001C8.18617 4.00001 8.04759 3.86143 8.04759 3.69049V3.50954ZM9.59523 3.20001C9.42428 3.20001 9.28571 3.33859 9.28571 3.50954V3.69049C9.28571 3.86143 9.42428 4.00001 9.59523 4.00001C9.76618 4.00001 9.90475 3.86143 9.90475 3.69049V3.50954C9.90475 3.33859 9.76618 3.20001 9.59523 3.20001ZM10.5238 3.50954C10.5238 3.33859 10.6623 3.20001 10.8333 3.20001C11.0042 3.20001 11.1428 3.33859 11.1428 3.50954V3.69049C11.1428 3.86143 11.0042 4.00001 10.8333 4.00001C10.6623 4.00001 10.5238 3.86143 10.5238 3.69049V3.50954ZM12.0714 3.20001C11.9005 3.20001 11.7619 3.33859 11.7619 3.50954V3.69049C11.7619 3.86143 11.9005 4.00001 12.0714 4.00001C12.2423 4.00001 12.3809 3.86143 12.3809 3.69049V3.50954C12.3809 3.33859 12.2423 3.20001 12.0714 3.20001ZM0.619019 8.30954C0.619019 8.13859 0.757597 8.00001 0.928542 8.00001C1.09949 8.00001 1.23807 8.13859 1.23807 8.30954V8.49049C1.23807 8.66143 1.09949 8.80001 0.928542 8.80001C0.757597 8.80001 0.619019 8.66143 0.619019 8.49049V8.30954ZM2.16666 8.00001C1.99571 8.00001 1.85714 8.13859 1.85714 8.30954V8.49049C1.85714 8.66143 1.99571 8.80001 2.16666 8.80001C2.3376 8.80001 2.47618 8.66143 2.47618 8.49049V8.30954C2.47618 8.13859 2.3376 8.00001 2.16666 8.00001ZM3.09519 8.30954C3.09519 8.13859 3.23377 8.00001 3.40471 8.00001C3.57566 8.00001 3.71424 8.13859 3.71424 8.30954V8.49049C3.71424 8.66143 3.57566 8.80001 3.40471 8.80001C3.23377 8.80001 3.09519 8.66143 3.09519 8.49049V8.30954ZM4.64283 8.00001C4.47188 8.00001 4.3333 8.13859 4.3333 8.30954V8.49049C4.3333 8.66143 4.47188 8.80001 4.64283 8.80001C4.81377 8.80001 4.95235 8.66143 4.95235 8.49049V8.30954C4.95235 8.13859 4.81377 8.00001 4.64283 8.00001ZM5.57142 8.30954C5.57142 8.13859 5.71 8.00001 5.88095 8.00001C6.05189 8.00001 6.19047 8.13859 6.19047 8.30954V8.49049C6.19047 8.66143 6.05189 8.80001 5.88095 8.80001C5.71 8.80001 5.57142 8.66143 5.57142 8.49049V8.30954ZM7.119 8.00001C6.94805 8.00001 6.80947 8.13859 6.80947 8.30954V8.49049C6.80947 8.66143 6.94805 8.80001 7.119 8.80001C7.28994 8.80001 7.42852 8.66143 7.42852 8.49049V8.30954C7.42852 8.13859 7.28994 8.00001 7.119 8.00001ZM8.04759 8.30954C8.04759 8.13859 8.18617 8.00001 8.35711 8.00001C8.52806 8.00001 8.66664 8.13859 8.66664 8.30954V8.49049C8.66664 8.66143 8.52806 8.80001 8.35711 8.80001C8.18617 8.80001 8.04759 8.66143 8.04759 8.49049V8.30954ZM9.59523 8.00001C9.42428 8.00001 9.28571 8.13859 9.28571 8.30954V8.49049C9.28571 8.66143 9.42428 8.80001 9.59523 8.80001C9.76618 8.80001 9.90475 8.66143 9.90475 8.49049V8.30954C9.90475 8.13859 9.76618 8.00001 9.59523 8.00001ZM10.5238 8.30954C10.5238 8.13859 10.6623 8.00001 10.8333 8.00001C11.0042 8.00001 11.1428 8.13859 11.1428 8.30954V8.49049C11.1428 8.66143 11.0042 8.80001 10.8333 8.80001C10.6623 8.80001 10.5238 8.66143 10.5238 8.49049V8.30954ZM12.0714 8.00001C11.9005 8.00001 11.7619 8.13859 11.7619 8.30954V8.49049C11.7619 8.66143 11.9005 8.80001 12.0714 8.80001C12.2423 8.80001 12.3809 8.66143 12.3809 8.49049V8.30954C12.3809 8.13859 12.2423 8.00001 12.0714 8.00001Z" fill="white" fill-opacity="0.5"/>
<mask id="path-7-inside-1" fill="white">
<path fill-rule="evenodd" clip-rule="evenodd" d="M5.87483 5.11267C5.68841 5.33215 5.57141 5.64841 5.57141 5.99999C5.57141 6.66273 5.98715 7.19998 6.49998 7.19998V7.19998C7.01282 7.19998 7.42855 6.66273 7.42855 5.99999C7.42855 5.65504 7.31593 5.3441 7.13562 5.1252"/>
</mask>
<path d="M5.36671 4.68109C5.06833 5.03238 4.90474 5.5058 4.90474 5.99999H6.23808C6.23808 5.79102 6.30848 5.63192 6.38294 5.54426L5.36671 4.68109ZM4.90474 5.99999C4.90474 6.86181 5.47004 7.86665 6.49998 7.86665V6.53332C6.49157 6.53332 6.44034 6.5306 6.37063 6.44052C6.30029 6.34962 6.23808 6.19609 6.23808 5.99999H4.90474ZM6.49998 7.86665C7.52992 7.86665 8.09522 6.86181 8.09522 5.99999H6.76189C6.76189 6.19609 6.69967 6.34962 6.62933 6.44052C6.55963 6.5306 6.50839 6.53332 6.49998 6.53332V7.86665ZM8.09522 5.99999C8.09522 5.51482 7.93763 5.05028 7.65018 4.70133L6.62105 5.54907C6.69424 5.63791 6.76189 5.79527 6.76189 5.99999H8.09522Z" fill="#D80915" mask="url(#path-7-inside-1)"/>
<rect x="6.19043" y="5.60004" width="0.619047" height="1.6" rx="0.309524" fill="#D80915"/>
</g>
</svg>

<svg width="13" height="12" fill="none" xmlns="http://www.w3.org/2000/svg"><rect x=".25" y=".25" width="12.5" height="11.5" rx="1.75" fill="#fff" stroke="#F5F5F5" stroke-width=".5"/><mask id="a" maskUnits="userSpaceOnUse" x="0" y="0" width="13" height="12"><rect x=".25" y=".25" width="12.5" height="11.5" rx="1.75" fill="#fff" stroke="#fff" stroke-width=".5"/></mask><g mask="url(#a)"><path fill-rule="evenodd" clip-rule="evenodd" d="M0 4h13V0H0v4z" fill="#38BB56"/><path fill-rule="evenodd" clip-rule="evenodd" d="M0 12h13V8H0v4z" fill="#DE1B27"/><path fill-rule="evenodd" clip-rule="evenodd" d="M.929 3.2a.31.31 0 00-.31.31v.18a.31.31 0 00.62 0v-.18a.31.31 0 00-.31-.31zm1.238 0a.31.31 0 00-.31.31v.18a.31.31 0 10.62 0v-.18a.31.31 0 00-.31-.31zm.928.31a.31.31 0 11.62 0v.18a.31.31 0 01-.62 0v-.18zm1.548-.31a.31.31 0 00-.31.31v.18a.31.31 0 00.62 0v-.18a.31.31 0 00-.31-.31zm.928.31a.31.31 0 11.62 0v.18a.31.31 0 01-.62 0v-.18zM7.12 3.2a.31.31 0 00-.31.31v.18a.31.31 0 00.62 0v-.18a.31.31 0 00-.31-.31zm.929.31a.31.31 0 11.619 0v.18a.31.31 0 01-.62 0v-.18zm1.547-.31a.31.31 0 00-.31.31v.18a.31.31 0 10.62 0v-.18a.31.31 0 00-.31-.31zm.929.31a.31.31 0 11.619 0v.18a.31.31 0 01-.62 0v-.18zm1.547-.31a.31.31 0 00-.31.31v.18a.31.31 0 00.62 0v-.18a.31.31 0 00-.31-.31zM.62 8.31a.31.31 0 11.62 0v.18a.31.31 0 01-.62 0v-.18zM2.167 8a.31.31 0 00-.31.31v.18a.31.31 0 10.62 0v-.18a.31.31 0 00-.31-.31zm.928.31a.31.31 0 11.62 0v.18a.31.31 0 01-.62 0v-.18zM4.643 8a.31.31 0 00-.31.31v.18a.31.31 0 00.62 0v-.18a.31.31 0 00-.31-.31zm.928.31a.31.31 0 11.62 0v.18a.31.31 0 01-.62 0v-.18zM7.12 8a.31.31 0 00-.31.31v.18a.31.31 0 00.62 0v-.18A.31.31 0 007.12 8zm.929.31a.31.31 0 11.619 0v.18a.31.31 0 01-.62 0v-.18zM9.595 8a.31.31 0 00-.31.31v.18a.31.31 0 10.62 0v-.18a.31.31 0 00-.31-.31zm.929.31a.31.31 0 11.619 0v.18a.31.31 0 01-.62 0v-.18zM12.07 8a.31.31 0 00-.31.31v.18a.31.31 0 00.62 0v-.18a.31.31 0 00-.31-.31z" fill="#fff" fill-opacity=".5"/><mask id="b" fill="#fff"><path fill-rule="evenodd" clip-rule="evenodd" d="M5.875 5.113c-.187.22-.304.535-.304.887 0 .663.416 1.2.929 1.2.513 0 .929-.537.929-1.2a1.38 1.38 0 00-.293-.875"/></mask><path d="M5.367 4.681A2.04 2.04 0 004.905 6h1.333c0-.209.07-.368.145-.456l-1.016-.863zM4.905 6c0 .862.565 1.867 1.595 1.867V6.533c-.008 0-.06-.002-.13-.092A.729.729 0 016.239 6H4.905zM6.5 7.867c1.03 0 1.595-1.005 1.595-1.867H6.762a.72.72 0 01-.133.44c-.07.09-.12.093-.129.093v1.334zM8.095 6c0-.485-.157-.95-.445-1.299l-1.029.848a.72.72 0 01.14.451h1.334z" fill="#D80915" mask="url(#b)"/><rect x="6.19" y="5.6" width=".619" height="1.6" rx=".31" fill="#D80915"/></g></svg>
